svgs/vrt_max.svg

<svg xmlns="http://www.w3.org/2000/svg" viewBox="0 0 192 192"><path d="M102.086 174.534c-8.168-2.255-12.045-9.35-11.285-20.654.513-7.627 1.356-9.791 4.973-12.77 6.032-4.967 14.087-6.17 20.399-3.045 2.846 1.409 5.074 1.811 5.074.916 0-.878 2.194-1.596 4.876-1.596H131v37.349h-4.877c-2.682 0-4.876-.664-4.876-1.476 0-.813-2.537-.463-5.637.778-6.33 2.532-6.179 2.526-13.524.498Zm14.221-7.548c4.899-2.51 6.885-10.294 4.198-16.451-5.776-13.235-24.418-5.382-21.14 8.906 1.699 7.405 9.999 11.102 16.942 7.545ZM20.468 156.06v-18.675h4.877c3.454 0 4.876.751 4.876 2.576 0 2.326.275 2.344 2.845.184 6.256-5.26 16.108-4.516 20.947 1.581 1.411 1.779 2.129 1.99 2.164.637.073-2.858 11.126-6.945 15.766-5.83 8.609 2.069 10.293 5.772 10.293 22.639v15.562h-4.064c-3.986 0-4.063-.23-4.063-12.103 0-13.609-2.544-19.021-8.94-19.021-6.397 0-8.94 5.412-8.94 19.021 0 11.873-.078 12.103-4.064 12.103-3.959 0-4.064-.291-4.088-11.282-.027-12.833-2.439-18.833-7.871-19.578-7.43-1.018-9.985 3.555-9.985 17.874v12.986h-9.753Zm119.786 13.85c6.658-10.939 12.72-14.275 20.646-11.363 1.393.511 5.109 4.363 8.257 8.559l5.725 7.628h-4.681c-3.439 0-5.832-1.444-9.02-5.446-2.387-2.996-4.939-5.447-5.672-5.447-.734 0-3.074 2.446-5.2 5.436-2.869 4.032-5.045 5.439-8.429 5.447l-4.562.011 2.936-4.825Zm4.743-23.653c-3.229-3.772-5.87-7.311-5.87-7.865 0-.554 2.057-1.007 4.571-1.007 3.252 0 5.674 1.429 8.396 4.954l3.825 4.954 4.425-5.074c3.386-3.884 5.475-4.955 8.9-4.565l4.475.509-5.58 7.003c-4.533 5.689-6.678 7.092-11.427 7.476-5.193.42-6.501-.293-11.715-6.385ZM38.505 90.979C35.99 86.48 26.996 64.603 22.074 51.015c-2.48-6.847-5.046-13.711-5.701-15.253-1.084-2.547-.276-2.76 8.869-2.334l10.061.469 7.303 21.398c4.017 11.768 7.889 21.398 8.604 21.398 1.314 0 14.825-38.029 14.79-41.629-.013-1.342 3.006-1.946 9.734-1.946 5.364 0 9.753.669 9.753 1.486 0 2.168-11.685 33.114-17.802 47.146l-5.258 12.061H51.258c-9.138 0-11.458-.515-12.753-2.832Zm47.56.474c-.52-1.297-.64-9.526-.267-18.286.527-12.384 1.456-17.355 4.176-22.345 6.458-11.85 17.183-17.676 32.577-17.695l6.993-.009-.491 8.029-.491 8.028-7.315.618c-5.394.455-8.595 1.829-12.191 5.231-4.829 4.57-4.876 4.779-4.876 21.701v17.087l-8.585-.001c-6.17 0-8.851-.663-9.53-2.358Zm61.246-.508c-8.253-4.238-11.706-11.957-12.683-28.351l-.828-13.913h18.331v10.014c0 16.708 3.456 21.066 14.335 18.078 4.829-1.326 5.463-1.103 6.858 2.41 3.901 9.825 3.732 11.03-1.805 12.878-7.77 2.593-17.893 2.127-24.208-1.116Zm4.007-48.288c-9.598-5.707-15.442-14.362-15.442-22.868 0-3.502.607-3.789 8.018-3.789 6.901 0 8.173.488 9.132 3.501 1.834 5.76 5.792 8.94 12.383 9.949l6.227.954v15.164l-7.721-.006c-4.694-.003-9.632-1.142-12.597-2.905Z"/></svg>

<svg
    xmlns="http://www.w3.org/2000/svg"
    viewBox="0 0 192 192"
    id="vector">
    <g id="group">
        <path
            id="path_6"
            d="M 102.086 174.534 C 93.918 172.279 90.041 165.184 90.801 153.88 C 91.314 146.253 92.157 144.089 95.774 141.11 C 101.806 136.143 109.861 134.94 116.173 138.065 C 119.019 139.474 121.247 139.876 121.247 138.981 C 121.247 138.103 123.441 137.385 126.123 137.385 L 131 137.385 L 131 174.734 L 126.123 174.734 C 123.441 174.734 121.247 174.07 121.247 173.258 C 121.247 172.445 118.71 172.795 115.61 174.036 C 109.28 176.568 109.431 176.562 102.086 174.534 Z M 116.307 166.986 C 121.206 164.476 123.192 156.692 120.505 150.535 C 114.729 137.3 96.087 145.153 99.365 159.441 C 101.064 166.846 109.364 170.543 116.307 166.986 Z M 20.468 156.06 L 20.468 137.385 L 25.345 137.385 C 28.799 137.385 30.221 138.136 30.221 139.961 C 30.221 142.287 30.496 142.305 33.066 140.145 C 39.322 134.885 49.174 135.629 54.013 141.726 C 55.424 143.505 56.142 143.716 56.177 142.363 C 56.25 139.505 67.303 135.418 71.943 136.533 C 80.552 138.602 82.236 142.305 82.236 159.172 L 82.236 174.734 L 78.172 174.734 C 74.186 174.734 74.109 174.504 74.109 162.631 C 74.109 149.022 71.565 143.61 65.169 143.61 C 58.772 143.61 56.229 149.022 56.229 162.631 C 56.229 174.504 56.151 174.734 52.165 174.734 C 48.206 174.734 48.101 174.443 48.077 163.452 C 48.05 150.619 45.638 144.619 40.206 143.874 C 32.776 142.856 30.221 147.429 30.221 161.748 L 30.221 174.734 L 20.468 174.734 Z M 140.254 169.91 C 146.912 158.971 152.974 155.635 160.9 158.547 C 162.293 159.058 166.009 162.91 169.157 167.106 L 174.882 174.734 L 170.201 174.734 C 166.762 174.734 164.369 173.29 161.181 169.288 C 158.794 166.292 156.242 163.841 155.509 163.841 C 154.775 163.841 152.435 166.287 150.309 169.277 C 147.44 173.309 145.264 174.716 141.88 174.724 L 137.318 174.735 L 140.254 169.91 Z M 144.997 146.257 C 141.768 142.485 139.127 138.946 139.127 138.392 C 139.127 137.838 141.184 137.385 143.698 137.385 C 146.95 137.385 149.372 138.814 152.094 142.339 L 155.919 147.293 L 160.344 142.219 C 163.73 138.335 165.819 137.264 169.244 137.654 L 173.719 138.163 L 168.139 145.166 C 163.606 150.855 161.461 152.258 156.712 152.642 C 151.519 153.062 150.211 152.349 144.997 146.257 Z M 38.505 90.979 C 35.99 86.48 26.996 64.603 22.074 51.015 C 19.594 44.168 17.028 37.304 16.373 35.762 C 15.289 33.215 16.097 33.002 25.242 33.428 L 35.303 33.897 L 42.606 55.295 C 46.623 67.063 50.495 76.693 51.21 76.693 C 52.524 76.693 66.035 38.664 66 35.064 C 65.987 33.722 69.006 33.118 75.734 33.118 C 81.098 33.118 85.487 33.787 85.487 34.604 C 85.487 36.772 73.802 67.718 67.685 81.75 L 62.427 93.811 L 51.258 93.811 C 42.12 93.811 39.8 93.296 38.505 90.979 Z M 86.065 91.453 C 85.545 90.156 85.425 81.927 85.798 73.167 C 86.325 60.783 87.254 55.812 89.974 50.822 C 96.432 38.972 107.157 33.146 122.551 33.127 L 129.544 33.118 L 129.053 41.147 L 128.562 49.175 L 121.247 49.793 C 115.853 50.248 112.652 51.622 109.056 55.024 C 104.227 59.594 104.18 59.803 104.18 76.725 L 104.18 93.812 L 95.595 93.811 C 89.425 93.811 86.744 93.148 86.065 91.453 Z M 147.311 90.945 C 139.058 86.707 135.605 78.988 134.628 62.594 L 133.8 48.681 L 152.131 48.681 L 152.131 58.695 C 152.131 75.403 155.587 79.761 166.466 76.773 C 171.295 75.447 171.929 75.67 173.324 79.183 C 177.225 89.008 177.056 90.213 171.519 92.061 C 163.749 94.654 153.626 94.188 147.311 90.945 Z M 151.318 42.657 C 141.72 36.95 135.876 28.295 135.876 19.789 C 135.876 16.287 136.483 16 143.894 16 C 150.795 16 152.067 16.488 153.026 19.501 C 154.86 25.261 158.818 28.441 165.409 29.45 L 171.636 30.404 L 171.636 45.568 L 163.915 45.562 C 159.221 45.559 154.283 44.42 151.318 42.657 Z"
            fill="#000000"
            stroke-width="12"/>
    </g>
</svg>
